app/assets/images/icons/weather/cloudy.svg

<?xml version="1.0" encoding="UTF-8" standalone="no"?>
<svg width="32px" height="232px" viewBox="0 0 32 232" version="1.1" xmlns="http://www.w3.org/2000/svg" xmlns:xlink="http://www.w3.org/1999/xlink" xmlns:sketch="http://www.bohemiancoding.com/sketch/ns">
    <!-- Generator: Sketch 3.0.3 (7891) - http://www.bohemiancoding.com/sketch -->
    <title>Slice 3</title>
    <desc>Created with Sketch.</desc>
    <defs></defs>
    <g id="Weather" stroke="none" stroke-width="1" fill="none" fill-rule="evenodd" sketch:type="MSPage">
        <path d="M23.461,9.3010001 C21.412,9.3010001 19.423,10.0530001 17.878,11.3900001 C17.128,8.4880001 14.5,6.4000001 11.421,6.4000001 C8.451,6.4000001 5.869,8.3440001 5.032,11.1670001 C2.141,11.7100001 0,14.2600001 0,17.2300001 C0,19.6490001 1.428,21.8570001 3.636,22.8550001 C3.7,22.8840001 3.769,22.8990001 3.838,22.8990001 L5.998,22.8990001 C6.715,24.3340001 7.994,25.4550001 9.616,25.9510001 C9.662,25.9660001 9.71,25.9730001 9.759,25.9730001 L25.404,25.9730001 C25.507,25.9730001 25.607,25.9400001 25.691,25.8800001 C26.661,25.1810001 27.258,24.0800001 27.334,22.8990001 L30.085,22.8990001 C30.246,22.8990001 30.396,22.8200001 30.488,22.6880001 C31.477,21.2550001 32,19.5780001 32,17.8400001 C32,13.1310001 28.17,9.3010001 23.461,9.3010001 L23.461,9.3010001 Z M25.239,24.9940001 L9.834,24.9940001 C7.743,24.3220001 6.343,22.4050001 6.343,20.2010001 C6.343,17.4250001 8.601,15.1670001 11.377,15.1670001 C13.145,15.1670001 14.804,16.1160001 15.708,17.6430001 C15.788,17.7780001 15.927,17.8670001 16.083,17.8810001 C16.241,17.8950001 16.392,17.8360001 16.496,17.7180001 C17.091,17.0450001 17.943,16.6590001 18.834,16.6590001 C20.385,16.6590001 21.712,17.8170001 21.921,19.3540001 C21.941,19.4940001 22.02,19.6200001 22.138,19.6970001 C22.258,19.7750001 22.405,19.7970001 22.54,19.7590001 C22.814,19.6810001 23.091,19.6410001 23.363,19.6410001 C25.021,19.6410001 26.37,20.9910001 26.37,22.6490001 C26.37,23.5590001 25.95,24.4240001 25.239,24.9940001 L25.239,24.9940001 Z M29.823,21.9200001 L27.279,21.9200001 C26.936,20.0690001 25.312,18.6630001 23.363,18.6630001 C23.172,18.6630001 22.979,18.6770001 22.787,18.7060001 C22.309,16.9490001 20.694,15.6800001 18.834,15.6800001 C17.871,15.6800001 16.944,16.0220001 16.211,16.6340001 C15.085,15.1120001 13.284,14.1880001 11.377,14.1880001 C8.062,14.1880001 5.364,16.8850001 5.364,20.2010001 C5.364,20.7960001 5.454,21.3730001 5.615,21.9200001 L3.946,21.9200001 C2.141,21.0600001 0.979,19.2310001 0.979,17.2300001 C0.979,14.6380001 2.917,12.4270001 5.486,12.0860001 C5.686,12.0590001 5.849,11.9130001 5.898,11.7170001 C6.522,9.1630001 8.794,7.3790001 11.421,7.3790001 C14.321,7.3790001 16.752,9.5500001 17.076,12.4290001 C17.098,12.6190001 17.228,12.7800001 17.41,12.8400001 C17.591,12.8980001 17.792,12.8480001 17.922,12.7070001 C19.373,11.1420001 21.341,10.2800001 23.461,10.2800001 C27.63,10.2800001 31.021,13.6710001 31.021,17.8400001 C31.021,19.2940001 30.608,20.6990001 29.823,21.9200001 L29.823,21.9200001 Z" id="mostly-cloudy" fill="#3B444F" sketch:type="MSShapeGroup"></path>
        <path d="M23.461,49.3010015 C21.412,49.3010015 19.423,50.0530015 17.878,51.3900015 C17.128,48.4880015 14.5,46.4000015 11.421,46.4000015 C8.451,46.4000015 5.869,48.3440015 5.032,51.1670015 C2.141,51.7100015 0,54.2600015 0,57.2300015 C0,59.6490015 1.428,61.8570015 3.636,62.8550015 C3.7,62.8840015 3.769,62.8990015 3.838,62.8990015 L5.998,62.8990015 C6.715,64.3340015 7.994,65.4550015 9.616,65.9510015 C9.662,65.9660015 9.71,65.9730015 9.759,65.9730015 L25.404,65.9730015 C25.507,65.9730015 25.607,65.9400015 25.691,65.8800015 C26.661,65.1810015 27.258,64.0800015 27.334,62.8990015 L30.085,62.8990015 C30.246,62.8990015 30.396,62.8200015 30.488,62.6880015 C31.477,61.2550015 32,59.5780015 32,57.8400015 C32,53.1310015 28.17,49.3010015 23.461,49.3010015 L23.461,49.3010015 Z M25.239,64.9940015 L9.834,64.9940015 C7.743,64.3220015 6.343,62.4050015 6.343,60.2010015 C6.343,57.4250015 8.601,55.1670015 11.377,55.1670015 C13.145,55.1670015 14.804,56.1160015 15.708,57.6430015 C15.788,57.7780015 15.927,57.8670015 16.083,57.8810015 C16.241,57.8950015 16.392,57.8360015 16.496,57.7180015 C17.091,57.0450015 17.943,56.6590015 18.834,56.6590015 C20.385,56.6590015 21.712,57.8170015 21.921,59.3540015 C21.941,59.4940015 22.02,59.6200015 22.138,59.6970015 C22.258,59.7750015 22.405,59.7970015 22.54,59.7590015 C22.814,59.6810015 23.091,59.6410015 23.363,59.6410015 C25.021,59.6410015 26.37,60.9910015 26.37,62.6490015 C26.37,63.5590015 25.95,64.4240015 25.239,64.9940015 L25.239,64.9940015 Z M29.823,61.9200015 L27.279,61.9200015 C26.936,60.0690015 25.312,58.6630015 23.363,58.6630015 C23.172,58.6630015 22.979,58.6770015 22.787,58.7060015 C22.309,56.9490015 20.694,55.6800015 18.834,55.6800015 C17.871,55.6800015 16.944,56.0220015 16.211,56.6340015 C15.085,55.1120015 13.284,54.1880015 11.377,54.1880015 C8.062,54.1880015 5.364,56.8850015 5.364,60.2010015 C5.364,60.7960015 5.454,61.3730015 5.615,61.9200015 L3.946,61.9200015 C2.141,61.0600015 0.979,59.2310015 0.979,57.2300015 C0.979,54.6380015 2.917,52.4270015 5.486,52.0860015 C5.686,52.0590015 5.849,51.9130015 5.898,51.7170015 C6.522,49.1630015 8.794,47.3790015 11.421,47.3790015 C14.321,47.3790015 16.752,49.5500015 17.076,52.4290015 C17.098,52.6190015 17.228,52.7800015 17.41,52.8400015 C17.591,52.8980015 17.792,52.8480015 17.922,52.7070015 C19.373,51.1420015 21.341,50.2800015 23.461,50.2800015 C27.63,50.2800015 31.021,53.6710015 31.021,57.8400015 C31.021,59.2940015 30.608,60.6990015 29.823,61.9200015 L29.823,61.9200015 Z" id="mostly-cloudy-2" fill="#67737B" sketch:type="MSShapeGroup"></path>
        <path d="M23.461,89.3010015 C21.412,89.3010015 19.423,90.0530015 17.878,91.3900015 C17.128,88.4880015 14.5,86.4000015 11.421,86.4000015 C8.451,86.4000015 5.869,88.3440015 5.032,91.1670015 C2.141,91.7100015 0,94.2600015 0,97.2300015 C0,99.6490015 1.428,101.857002 3.636,102.855002 C3.7,102.884002 3.769,102.899002 3.838,102.899002 L5.998,102.899002 C6.715,104.334002 7.994,105.455002 9.616,105.951002 C9.662,105.966002 9.71,105.973002 9.759,105.973002 L25.404,105.973002 C25.507,105.973002 25.607,105.940002 25.691,105.880002 C26.661,105.181002 27.258,104.080002 27.334,102.899002 L30.085,102.899002 C30.246,102.899002 30.396,102.820002 30.488,102.688002 C31.477,101.255002 32,99.5780015 32,97.8400015 C32,93.1310015 28.17,89.3010015 23.461,89.3010015 L23.461,89.3010015 Z M25.239,104.994002 L9.834,104.994002 C7.743,104.322002 6.343,102.405002 6.343,100.201002 C6.343,97.4250015 8.601,95.1670015 11.377,95.1670015 C13.145,95.1670015 14.804,96.1160015 15.708,97.6430015 C15.788,97.7780015 15.927,97.8670015 16.083,97.8810015 C16.241,97.8950015 16.392,97.8360015 16.496,97.7180015 C17.091,97.0450015 17.943,96.6590015 18.834,96.6590015 C20.385,96.6590015 21.712,97.8170015 21.921,99.3540015 C21.941,99.4940015 22.02,99.6200015 22.138,99.6970015 C22.258,99.7750015 22.405,99.7970015 22.54,99.7590015 C22.814,99.6810015 23.091,99.6410015 23.363,99.6410015 C25.021,99.6410015 26.37,100.991002 26.37,102.649002 C26.37,103.559002 25.95,104.424002 25.239,104.994002 L25.239,104.994002 Z M29.823,101.920002 L27.279,101.920002 C26.936,100.069002 25.312,98.6630015 23.363,98.6630015 C23.172,98.6630015 22.979,98.6770015 22.787,98.7060015 C22.309,96.9490015 20.694,95.6800015 18.834,95.6800015 C17.871,95.6800015 16.944,96.0220015 16.211,96.6340015 C15.085,95.1120015 13.284,94.1880015 11.377,94.1880015 C8.062,94.1880015 5.364,96.8850015 5.364,100.201002 C5.364,100.796002 5.454,101.373002 5.615,101.920002 L3.946,101.920002 C2.141,101.060002 0.979,99.2310015 0.979,97.2300015 C0.979,94.6380015 2.917,92.4270015 5.486,92.0860015 C5.686,92.0590015 5.849,91.9130015 5.898,91.7170015 C6.522,89.1630015 8.794,87.3790015 11.421,87.3790015 C14.321,87.3790015 16.752,89.5500015 17.076,92.4290015 C17.098,92.6190015 17.228,92.7800015 17.41,92.8400015 C17.591,92.8980015 17.792,92.8480015 17.922,92.7070015 C19.373,91.1420015 21.341,90.2800015 23.461,90.2800015 C27.63,90.2800015 31.021,93.6710015 31.021,97.8400015 C31.021,99.2940015 30.608,100.699002 29.823,101.920002 L29.823,101.920002 Z" id="mostly-cloudy-3" fill="#FFFFFF" sketch:type="MSShapeGroup"></path>
        <path d="M23.461,129.301002 C21.412,129.301002 19.423,130.053002 17.878,131.390002 C17.128,128.488002 14.5,126.400002 11.421,126.400002 C8.451,126.400002 5.869,128.344002 5.032,131.167002 C2.141,131.710002 0,134.260002 0,137.230002 C0,139.649002 1.428,141.857002 3.636,142.855002 C3.7,142.884002 3.769,142.899002 3.838,142.899002 L5.998,142.899002 C6.715,144.334002 7.994,145.455002 9.616,145.951002 C9.662,145.966002 9.71,145.973002 9.759,145.973002 L25.404,145.973002 C25.507,145.973002 25.607,145.940002 25.691,145.880002 C26.661,145.181002 27.258,144.080002 27.334,142.899002 L30.085,142.899002 C30.246,142.899002 30.396,142.820002 30.488,142.688002 C31.477,141.255002 32,139.578002 32,137.840002 C32,133.131002 28.17,129.301002 23.461,129.301002 L23.461,129.301002 Z M25.239,144.994002 L9.834,144.994002 C7.743,144.322002 6.343,142.405002 6.343,140.201002 C6.343,137.425002 8.601,135.167002 11.377,135.167002 C13.145,135.167002 14.804,136.116002 15.708,137.643002 C15.788,137.778002 15.927,137.867002 16.083,137.881002 C16.241,137.895002 16.392,137.836002 16.496,137.718002 C17.091,137.045002 17.943,136.659002 18.834,136.659002 C20.385,136.659002 21.712,137.817002 21.921,139.354002 C21.941,139.494002 22.02,139.620002 22.138,139.697002 C22.258,139.775002 22.405,139.797002 22.54,139.759002 C22.814,139.681002 23.091,139.641002 23.363,139.641002 C25.021,139.641002 26.37,140.991002 26.37,142.649002 C26.37,143.559002 25.95,144.424002 25.239,144.994002 L25.239,144.994002 Z M29.823,141.920002 L27.279,141.920002 C26.936,140.069002 25.312,138.663002 23.363,138.663002 C23.172,138.663002 22.979,138.677002 22.787,138.706002 C22.309,136.949002 20.694,135.680002 18.834,135.680002 C17.871,135.680002 16.944,136.022002 16.211,136.634002 C15.085,135.112002 13.284,134.188002 11.377,134.188002 C8.062,134.188002 5.364,136.885002 5.364,140.201002 C5.364,140.796002 5.454,141.373002 5.615,141.920002 L3.946,141.920002 C2.141,141.060002 0.979,139.231002 0.979,137.230002 C0.979,134.638002 2.917,132.427002 5.486,132.086002 C5.686,132.059002 5.849,131.913002 5.898,131.717002 C6.522,129.163002 8.794,127.379002 11.421,127.379002 C14.321,127.379002 16.752,129.550002 17.076,132.429002 C17.098,132.619002 17.228,132.780002 17.41,132.840002 C17.591,132.898002 17.792,132.848002 17.922,132.707002 C19.373,131.142002 21.341,130.280002 23.461,130.280002 C27.63,130.280002 31.021,133.671002 31.021,137.840002 C31.021,139.294002 30.608,140.699002 29.823,141.920002 L29.823,141.920002 Z" id="mostly-cloudy-4" fill="#206FAC" sketch:type="MSShapeGroup"></path>
    </g>
</svg>

<svg width="32" height="232" viewBox="0 0 32 232" xmlns="http://www.w3.org/2000/svg"><g fill="none" fill-rule="evenodd"><path d="M23.46 9.3c-2.048 0-4.037.753-5.582 2.09-.75-2.902-3.378-4.99-6.457-4.99-2.97 0-5.55 1.944-6.388 4.767C2.142 11.71 0 14.26 0 17.23c0 2.42 1.428 4.627 3.636 5.625.064.03.133.044.202.044h2.16c.717 1.434 1.996 2.555 3.618 3.05.046.016.094.023.143.023h15.644c.103 0 .203-.033.287-.093.97-.7 1.568-1.8 1.644-2.98h2.75c.162 0 .312-.08.404-.212.99-1.433 1.512-3.11 1.512-4.848 0-4.71-3.83-8.54-8.54-8.54zm1.78 15.694H9.833c-2.09-.672-3.49-2.59-3.49-4.793 0-2.775 2.257-5.033 5.033-5.033 1.768 0 3.427.95 4.33 2.476.08.135.22.224.376.238.158.015.31-.044.413-.162.595-.673 1.447-1.06 2.338-1.06 1.55 0 2.878 1.16 3.087 2.696.02.14.1.266.218.343.12.078.267.1.402.062.274-.08.55-.12.823-.12 1.658 0 3.007 1.35 3.007 3.01 0 .91-.42 1.774-1.13 2.344zm4.583-3.074H27.28c-.344-1.85-1.968-3.257-3.917-3.257-.19 0-.384.014-.576.043-.478-1.757-2.093-3.026-3.953-3.026-.963 0-1.89.342-2.623.954-1.125-1.522-2.926-2.446-4.833-2.446-3.315 0-6.013 2.697-6.013 6.013 0 .596.09 1.173.25 1.72H3.947C2.14 21.06.98 19.23.98 17.23c0-2.592 1.937-4.803 4.506-5.144.2-.027.363-.173.412-.37.624-2.553 2.896-4.337 5.523-4.337 2.9 0 5.332 2.17 5.656 5.05.022.19.152.35.334.41.18.058.382.008.512-.133 1.45-1.565 3.42-2.427 5.54-2.427 4.168 0 7.56 3.39 7.56 7.56 0 1.454-.414 2.86-1.2 4.08z" fill="#3B444F"/><path d="M23.46 49.3c-2.048 0-4.037.753-5.582 2.09-.75-2.902-3.378-4.99-6.457-4.99-2.97 0-5.55 1.944-6.388 4.767C2.142 51.71 0 54.26 0 57.23c0 2.42 1.428 4.627 3.636 5.625.064.03.133.044.202.044h2.16c.717 1.434 1.996 2.555 3.618 3.05.046.016.094.023.143.023h15.644c.103 0 .203-.033.287-.093.97-.7 1.568-1.8 1.644-2.98h2.75c.162 0 .312-.08.404-.212.99-1.433 1.512-3.11 1.512-4.848 0-4.71-3.83-8.54-8.54-8.54zm1.78 15.694H9.833c-2.09-.672-3.49-2.59-3.49-4.793 0-2.775 2.257-5.033 5.033-5.033 1.768 0 3.427.95 4.33 2.476.08.135.22.224.376.238.158.015.31-.044.413-.162.595-.673 1.447-1.06 2.338-1.06 1.55 0 2.878 1.16 3.087 2.696.02.14.1.266.218.343.12.078.267.1.402.062.274-.08.55-.12.823-.12 1.658 0 3.007 1.35 3.007 3.01 0 .91-.42 1.774-1.13 2.344zm4.583-3.074H27.28c-.344-1.85-1.968-3.257-3.917-3.257-.19 0-.384.014-.576.043-.478-1.757-2.093-3.026-3.953-3.026-.963 0-1.89.342-2.623.954-1.125-1.522-2.926-2.446-4.833-2.446-3.315 0-6.013 2.697-6.013 6.013 0 .596.09 1.173.25 1.72H3.947C2.14 61.06.98 59.23.98 57.23c0-2.592 1.937-4.803 4.506-5.144.2-.027.363-.173.412-.37.624-2.553 2.896-4.337 5.523-4.337 2.9 0 5.332 2.17 5.656 5.05.022.19.152.35.334.41.18.058.382.008.512-.133 1.45-1.565 3.42-2.427 5.54-2.427 4.168 0 7.56 3.39 7.56 7.56 0 1.454-.414 2.86-1.2 4.08z" fill="#67737B"/><path d="M23.46 89.3c-2.048 0-4.037.753-5.582 2.09-.75-2.902-3.378-4.99-6.457-4.99-2.97 0-5.55 1.944-6.388 4.767C2.142 91.71 0 94.26 0 97.23c0 2.42 1.428 4.627 3.636 5.625.064.03.133.044.202.044h2.16c.717 1.434 1.996 2.555 3.618 3.05.046.016.094.023.143.023h15.644c.103 0 .203-.033.287-.093.97-.7 1.568-1.8 1.644-2.98h2.75c.162 0 .312-.08.404-.212.99-1.433 1.512-3.11 1.512-4.848 0-4.71-3.83-8.54-8.54-8.54zm1.78 15.694H9.833c-2.09-.672-3.49-2.59-3.49-4.793 0-2.775 2.257-5.033 5.033-5.033 1.768 0 3.427.95 4.33 2.476.08.135.22.224.376.238.158.015.31-.044.413-.162.595-.673 1.447-1.06 2.338-1.06 1.55 0 2.878 1.16 3.087 2.696.02.14.1.266.218.343.12.078.267.1.402.062.274-.08.55-.12.823-.12 1.658 0 3.007 1.35 3.007 3.01 0 .91-.42 1.774-1.13 2.344zm4.583-3.074H27.28c-.344-1.85-1.968-3.257-3.917-3.257-.19 0-.384.014-.576.043-.478-1.757-2.093-3.026-3.953-3.026-.963 0-1.89.342-2.623.954-1.125-1.522-2.926-2.446-4.833-2.446-3.315 0-6.013 2.697-6.013 6.013 0 .596.09 1.173.25 1.72H3.947C2.14 101.06.98 99.23.98 97.23c0-2.592 1.937-4.803 4.506-5.144.2-.027.363-.173.412-.37.624-2.553 2.896-4.337 5.523-4.337 2.9 0 5.332 2.17 5.656 5.05.022.19.152.35.334.41.18.058.382.008.512-.133 1.45-1.565 3.42-2.427 5.54-2.427 4.168 0 7.56 3.39 7.56 7.56 0 1.454-.414 2.86-1.2 4.08z" fill="#fff"/><path d="M23.46 129.3c-2.048 0-4.037.753-5.582 2.09-.75-2.902-3.378-4.99-6.457-4.99-2.97 0-5.55 1.944-6.388 4.767C2.142 131.71 0 134.26 0 137.23c0 2.42 1.428 4.627 3.636 5.625.064.03.133.044.202.044h2.16c.717 1.434 1.996 2.555 3.618 3.05.046.016.094.023.143.023h15.644c.103 0 .203-.033.287-.093.97-.7 1.568-1.8 1.644-2.98h2.75c.162 0 .312-.08.404-.212.99-1.433 1.512-3.11 1.512-4.848 0-4.71-3.83-8.54-8.54-8.54zm1.78 15.694H9.833c-2.09-.672-3.49-2.59-3.49-4.793 0-2.775 2.257-5.033 5.033-5.033 1.768 0 3.427.95 4.33 2.476.08.135.22.224.376.238.158.015.31-.044.413-.162.595-.673 1.447-1.06 2.338-1.06 1.55 0 2.878 1.16 3.087 2.696.02.14.1.266.218.343.12.078.267.1.402.062.274-.08.55-.12.823-.12 1.658 0 3.007 1.35 3.007 3.01 0 .91-.42 1.774-1.13 2.344zm4.583-3.074H27.28c-.344-1.85-1.968-3.257-3.917-3.257-.19 0-.384.014-.576.043-.478-1.757-2.093-3.026-3.953-3.026-.963 0-1.89.342-2.623.954-1.125-1.522-2.926-2.446-4.833-2.446-3.315 0-6.013 2.697-6.013 6.013 0 .596.09 1.173.25 1.72H3.947C2.14 141.06.98 139.23.98 137.23c0-2.592 1.937-4.803 4.506-5.144.2-.027.363-.173.412-.37.624-2.553 2.896-4.337 5.523-4.337 2.9 0 5.332 2.17 5.656 5.05.022.19.152.35.334.41.18.058.382.008.512-.133 1.45-1.565 3.42-2.427 5.54-2.427 4.168 0 7.56 3.39 7.56 7.56 0 1.454-.414 2.86-1.2 4.08z" fill="#206FAC"/></g></svg>
